X: 41496
T: UBC Fiddle Club Theme
R: jig
M: 6/8
K: Gmajor
d^c=c|:B2 G D2 B,|CB,C E3|DFA ^DFA|GBe dBc|
d2 B G2 B,|CB,CE3|DFA cBA|G3 d^c=c:|
E3 EGc|^c3 cBc|d2 A A2 ^G|A3 A^G=G|
F2 CDFA|c2 CDFA|e2 d d2 ^c|d3 def|
g2 BB_B=B|b4 a^g|a^ga c'2 a|e3 e=f ^f|
g6|gdB GAB|cAFD E^F|G3 d^c=c|

